static/img/pages/getQuestdb/bsd.svg

<svg
  fill="none"
  height="49"
  viewBox="0 0 45 45"
  xmlns="http://www.w3.org/2000/svg"
>
  <path
    d="M43.8065 1.58526C46.1532 3.93085 39.6476 14.2412 38.5478 15.3416C37.448 16.4397 34.6546 15.4294 32.3091 13.0832C29.9624 10.7377 28.9515 7.9437 30.0513 6.8439C31.1505 5.74355 41.4603 -0.761417 43.8065 1.58526Z"
    fill="#F35183"
  />
  <path
    d="M10.8992 4.06696C7.3166 2.03419 2.21877 -0.226877 0.597054 1.39484C-1.04606 3.0374 1.29788 8.24994 3.35205 11.8391C5.18011 8.66099 7.78034 5.98557 10.8992 4.06696Z"
    fill="#F35183"
  />
  <path
    d="M40.2278 14.5327C40.5576 15.6517 40.4983 16.5759 39.9632 17.1099C38.7136 18.3601 35.3379 17.0292 32.2948 14.1332C32.0824 13.9428 31.8717 13.7452 31.6648 13.5378C30.5644 12.4369 29.7083 11.2652 29.1606 10.1862C28.0948 8.27418 27.8281 6.58551 28.6337 5.77987C29.0728 5.34138 29.7753 5.22174 30.6319 5.37595C31.1906 5.02252 31.8503 4.62903 32.5736 4.22566C29.6326 2.69176 26.2887 1.8252 22.7418 1.8252C10.9771 1.8252 1.43945 11.3612 1.43945 23.127C1.43945 34.8906 10.9771 44.4277 22.7418 44.4277C34.5065 44.4277 44.0436 34.8906 44.0436 23.127C44.0436 19.3276 43.0464 15.7648 41.3045 12.6761C40.928 13.3632 40.562 13.9927 40.2278 14.5327Z"
    fill="#F35183"
  />
</svg>

<svg fill="none" height="49" viewBox="0 0 45 45" xmlns="http://www.w3.org/2000/svg"><path d="M43.806 1.585c2.347 2.346-4.158 12.656-5.258 13.757-1.1 1.098-3.893.087-6.239-2.259-2.347-2.345-3.357-5.14-2.258-6.24 1.1-1.1 11.41-7.604 13.756-5.258zM10.9 4.067C7.316 2.034 2.218-.227.596 1.395c-1.643 1.642.7 6.855 2.755 10.444a22.03 22.03 0 017.547-7.772z" fill="#F35183"/><path d="M40.228 14.533c.33 1.119.27 2.043-.265 2.577-1.25 1.25-4.625-.08-7.668-2.977-.213-.19-.423-.388-.63-.595-1.1-1.101-1.957-2.273-2.504-3.352-1.066-1.912-1.333-3.6-.527-4.406.439-.439 1.141-.558 1.998-.404a41.362 41.362 0 011.942-1.15 21.198 21.198 0 00-9.832-2.4c-11.765 0-21.303 9.535-21.303 21.301 0 11.764 9.538 21.3 21.303 21.3s21.302-9.536 21.302-21.3c0-3.8-.998-7.362-2.74-10.45a41.166 41.166 0 01-1.076 1.856z" fill="#F35183"/></svg>
